X:134
M:6/8
L:1/8
K:Ab
c3/2 B/ A d2 c | c2 B A2 E | A2 A B2 B | c3- c2 e | e2 B B2 e | e2 c c2 c | B2 A F1G1 A | B3- B2 z | E F A F2 C | E2 F E3 | E F A F2 C | E2 F E3 | !sintro!A A A A3 | A A A !fermata!e3 | A3 B3 | A3- A2 z !eintro!|]
